packages/elements/bolt-icon/src/svgs/omni-channel.svg

<svg enable-background="new 0 0 32 32" viewBox="0 0 32 32" xmlns="http://www.w3.org/2000/svg"><path clip-rule="evenodd" d="m21.9 28.7c-1.6 0-3.1-.5-4.4-1.3 1.7-1.8 2.6-4.2 2.7-6.7 2.9-1.3 5-4 5.7-7.1 3.9 2.2 5.2 7.1 3.1 11-1.5 2.5-4.2 4.1-7.1 4.1m-19.9-8.1c0-2.9 1.6-5.5 4.1-7 .7 3.1 2.8 5.8 5.7 7.1 0 2.5.9 4.9 2.7 6.7-1.3.8-2.8 1.3-4.4 1.3-4.4-.1-8.1-3.7-8.1-8.1m14-17.3c4.2 0 7.7 3.1 8.1 7.3-.7-.2-1.5-.2-2.2-.2-2.1 0-4.2.7-5.9 1.9-1.7-1.2-3.8-1.9-5.9-1.9-.7 0-1.5.1-2.2.2.5-4.1 4-7.2 8.1-7.3m0 16.3c-.7 0-1.4-.1-2.1-.3.3-1.6 1-3.1 2.1-4.3 1.1 1.2 1.8 2.7 2.1 4.3-.7.1-1.4.2-2.1.3m-8-6.9c.7-.2 1.4-.3 2.1-.3 1.6 0 3.1.5 4.4 1.3-1.3 1.3-2.1 3-2.5 4.8-2.1-1.2-3.6-3.4-4-5.8m8 13.4c-1.2-1.3-2-3-2.2-4.8.7.2 1.5.2 2.2.2s1.5-.1 2.2-.2c-.2 1.8-1 3.5-2.2 4.8m4-7.6c-.4-1.8-1.2-3.4-2.5-4.8 1.3-.8 2.8-1.3 4.4-1.3.7 0 1.4.1 2.1.3-.4 2.4-1.9 4.6-4 5.8m6.1-7.1c0-5.6-4.5-10.1-10.1-10.1s-10.1 4.5-10.1 10.1c-5.1 2.3-7.3 8.3-5 13.4s8.3 7.3 13.4 5c.6-.3 1.2-.6 1.7-1 4.5 3.3 10.8 2.3 14.1-2.3 3.3-4.5 2.3-10.8-2.3-14.1-.5-.4-1.1-.7-1.7-1" fill="#151619" fill-rule="evenodd"/></svg>

<?xml version="1.0" encoding="utf-8"?>
<!-- Generator: Adobe Illustrator 25.2.0, SVG Export Plug-In . SVG Version: 6.00 Build 0)  -->
<svg version="1.1" id="Layer_1" xmlns="http://www.w3.org/2000/svg" xmlns:xlink="http://www.w3.org/1999/xlink" x="0px" y="0px"
	 viewBox="0 0 32 32" style="enable-background:new 0 0 32 32;" xml:space="preserve">
<style type="text/css">
	.st0{fill-rule:evenodd;clip-rule:evenodd;fill:#151619;}
</style>
<path class="st0" d="M21.9,28.7c-1.6,0-3.1-0.5-4.4-1.3c1.7-1.8,2.6-4.2,2.7-6.7c2.9-1.3,5-4,5.7-7.1c3.9,2.2,5.2,7.1,3.1,11
	C27.5,27.1,24.8,28.7,21.9,28.7 M2,20.6c0-2.9,1.6-5.5,4.1-7c0.7,3.1,2.8,5.8,5.7,7.1c0,2.5,0.9,4.9,2.7,6.7
	c-1.3,0.8-2.8,1.3-4.4,1.3C5.7,28.6,2,25,2,20.6 M16,3.3c4.2,0,7.7,3.1,8.1,7.3c-0.7-0.2-1.5-0.2-2.2-0.2c-2.1,0-4.2,0.7-5.9,1.9
	c-1.7-1.2-3.8-1.9-5.9-1.9c-0.7,0-1.5,0.1-2.2,0.2C8.4,6.5,11.9,3.4,16,3.3 M16,19.6c-0.7,0-1.4-0.1-2.1-0.3c0.3-1.6,1-3.1,2.1-4.3
	c1.1,1.2,1.8,2.7,2.1,4.3C17.4,19.4,16.7,19.5,16,19.6 M8,12.7c0.7-0.2,1.4-0.3,2.1-0.3c1.6,0,3.1,0.5,4.4,1.3
	c-1.3,1.3-2.1,3-2.5,4.8C9.9,17.3,8.4,15.1,8,12.7 M16,26.1c-1.2-1.3-2-3-2.2-4.8c0.7,0.2,1.5,0.2,2.2,0.2c0.7,0,1.5-0.1,2.2-0.2
	C18,23.1,17.2,24.8,16,26.1 M20,18.5c-0.4-1.8-1.2-3.4-2.5-4.8c1.3-0.8,2.8-1.3,4.4-1.3c0.7,0,1.4,0.1,2.1,0.3
	C23.6,15.1,22.1,17.3,20,18.5 M26.1,11.4c0-5.6-4.5-10.1-10.1-10.1c-5.6,0-10.1,4.5-10.1,10.1c-5.1,2.3-7.3,8.3-5,13.4
	s8.3,7.3,13.4,5c0.6-0.3,1.2-0.6,1.7-1c4.5,3.3,10.8,2.3,14.1-2.3c3.3-4.5,2.3-10.8-2.3-14.1C27.3,12,26.7,11.7,26.1,11.4"/>
</svg>
